X: 1
T: Archibald MacDonald of Keppoch
R: Air
Z: 2015 John Chambers <jc:trillian.mit.edu>
S: printed page in the Concord Slow Scottish Session collection
M: 6/8
L: 1/8
K: Dm
% - - - - - - - - - - - - - - -
V: 1
D/E/ |\
"Dm"F>GA "Bb"f>ed | "F"c<AF "C"{E}G2D/E/ |\
"Dm"F>GA "Bb"f>ed | "A7"A<d^c "Dm"d2 :|
d/e/ |\
"Bb"f>ed "Am"c>BA | "Gm"B>AG "Dm"A2D/E/ |\
"Dm"F>GA "Bb"f>ed | "A7"A<d^c "Dm"d2 ||
f/g/ |\
"F"a>gf "Dm"A<fd | "F"c>AF "C"G2D/E/ |\
"Dm"F>GA "Bb"f>ga | "A7"A<d^c | "Dm"d2 |]
% - - - - - - - - - - - - - - -
V: 2
M: 6/8
L: 1/8
K: Dm
z |\
D3 B,3 | F3 C3 | D3 B,3 | A3 D3 :| B3 A3 G3 D3 |
D3 B,3 | A,3 D3 | F3 D3 | F3 C3 | D3 A>Bc | A2A D2 |]
